X: 1
T:Lollipop Man, Ducklington
M:4/4
L:1/8
A:Ducklington
P:A(AB3)3A
K:G
P:A
BA|G<BD2 D2 DE |G2G2 G4 |BA GA  B2 AG |B2E2 E2BA|
Gde>f g2 dc |B2G2 G2 ||
P:B
BA|d4    g>fe>g|B2d2 d4 |A>GA>B c>BA>G|B2E2 E2BA|
Gde>f g2 dc |B2G2 G2 ||
